src/assets/icons/svg/cloud.svg

<svg width="24" height="24" viewBox="0 0 24 24" fill="none" xmlns="http://www.w3.org/2000/svg">
<path d="M15.2812 14.9603V12.1756C15.2812 10.3991 13.8093 8.95367 12 8.95367C10.1907 8.95367 8.71875 10.3991 8.71875 12.1756V14.9603C7.74005 15.8524 7.125 17.137 7.125 18.5625C7.125 21.2507 9.31183 23.4375 12 23.4375C14.6882 23.4375 16.875 21.2507 16.875 18.5625C16.875 17.137 16.2599 15.8524 15.2812 14.9603ZM10.5938 12.1756C10.5938 11.4329 11.2245 10.8289 12 10.8289C12.7755 10.8289 13.4062 11.4329 13.4062 12.1756V13.8946C12.9608 13.7602 12.4887 13.6875 12 13.6875C11.5113 13.6875 11.0392 13.7602 10.5938 13.8946V12.1756ZM12 21.5625C10.3458 21.5625 9 20.2167 9 18.5625C9 16.9083 10.3458 15.5625 12 15.5625C13.6542 15.5625 15 16.9083 15 18.5625C15 20.2167 13.6542 21.5625 12 21.5625ZM24 11.9531C24 13.1708 23.5794 14.3622 22.8159 15.308C22.064 16.2393 21.0104 16.8981 19.8492 17.163C19.5612 17.2288 19.3998 17.2687 19.3982 17.269C19.3224 17.2881 19.2462 17.2971 19.1713 17.2971C18.7507 17.2971 18.3682 17.0121 18.2622 16.5857C18.1371 16.0834 18.4429 15.5748 18.9452 15.4497C18.9523 15.4479 19.1239 15.4052 19.4323 15.3349C21.0176 14.9733 22.125 13.5826 22.125 11.9531C22.125 10.6661 21.4177 9.49109 20.2793 8.88684C19.9728 8.72424 19.7812 8.40564 19.7812 8.05884V6.90564C19.7812 4.41614 17.7557 2.39062 15.2662 2.39062C13.0598 2.39062 11.1418 4.03162 10.8047 6.20764C10.749 6.56708 10.4907 6.86169 10.1417 6.96387C9.79248 7.06604 9.41602 6.95709 9.17542 6.68463C8.73871 6.18988 8.11102 5.90625 7.45312 5.90625C6.18658 5.90625 5.15625 6.93658 5.15625 8.20312V9.89062C5.15625 10.4084 4.73657 10.8281 4.21875 10.8281H4.21161C2.9231 10.8281 1.875 11.8585 1.875 13.125C1.875 14.413 2.8634 15.4219 4.125 15.4219H4.73438C5.2522 15.4219 5.67188 15.8416 5.67188 16.3594C5.67188 16.8772 5.2522 17.2969 4.73438 17.2969H4.125C3.00623 17.2969 1.96326 16.8604 1.18781 16.0675C0.421875 15.2844 0 14.2394 0 13.125C0 11.1412 1.40515 9.47644 3.28125 9.05566V8.20312C3.28125 5.90277 5.15277 4.03125 7.45312 4.03125C8.11963 4.03125 8.76874 4.19128 9.3501 4.48828C9.72821 3.56433 10.3218 2.73303 11.0889 2.07001C12.2483 1.06769 13.7318 0.515625 15.2662 0.515625C18.7897 0.515625 21.6562 3.38214 21.6562 6.90564V7.53021C23.1149 8.51898 24 10.1656 24 11.9531ZM12.9844 17.5312V18.5625C12.9844 19.0803 12.5647 19.5 12.0469 19.5C11.5291 19.5 11.1094 19.0803 11.1094 18.5625V17.5312C11.1094 17.0134 11.5291 16.5938 12.0469 16.5938C12.5647 16.5938 12.9844 17.0134 12.9844 17.5312Z" fill="black"/>
</svg>

<?xml version="1.0" encoding="iso-8859-1"?>
<!-- Generator: Adobe Illustrator 23.1.0, SVG Export Plug-In . SVG Version: 6.00 Build 0)  -->
<svg version="1.1" id="&#x421;&#x43B;&#x43E;&#x439;_1"
	 xmlns="http://www.w3.org/2000/svg" xmlns:xlink="http://www.w3.org/1999/xlink" x="0px" y="0px" viewBox="0 0 24 24"
	 style="enable-background:new 0 0 24 24;" xml:space="preserve">
<path d="M15.281,14.96v-2.785c0-1.776-1.472-3.222-3.281-3.222s-3.281,1.445-3.281,3.222v2.785
	c-0.979,0.892-1.594,2.177-1.594,3.602c0,2.688,2.187,4.875,4.875,4.875c2.688,0,4.875-2.187,4.875-4.875
	C16.875,17.137,16.26,15.852,15.281,14.96z M10.594,12.176c0-0.743,0.631-1.347,1.406-1.347s1.406,0.604,1.406,1.347v1.719
	c-0.445-0.134-0.918-0.207-1.406-0.207s-0.961,0.073-1.406,0.207V12.176z M12,21.563c-1.654,0-3-1.346-3-3s1.346-3,3-3s3,1.346,3,3
	S13.654,21.563,12,21.563z M24,11.953c0,1.218-0.421,2.409-1.184,3.355c-0.752,0.931-1.806,1.59-2.967,1.855
	c-0.288,0.066-0.449,0.106-0.451,0.106c-0.076,0.019-0.152,0.028-0.227,0.028c-0.421,0-0.803-0.285-0.909-0.711
	c-0.125-0.502,0.181-1.011,0.683-1.136c0.007-0.002,0.179-0.045,0.487-0.115c1.585-0.362,2.693-1.752,2.693-3.382
	c0-1.287-0.707-2.462-1.846-3.066c-0.307-0.163-0.498-0.481-0.498-0.828V6.906c0-2.49-2.026-4.515-4.515-4.515
	c-2.206,0-4.124,1.641-4.462,3.817c-0.056,0.359-0.314,0.654-0.663,0.756C9.792,7.066,9.416,6.957,9.175,6.685
	C8.739,6.19,8.111,5.906,7.453,5.906c-1.267,0-2.297,1.03-2.297,2.297v1.688c0,0.518-0.42,0.937-0.938,0.937H4.212
	c-1.289,0-2.337,1.03-2.337,2.297c0,1.288,0.988,2.297,2.25,2.297h0.609c0.518,0,0.938,0.42,0.938,0.938s-0.42,0.938-0.938,0.938
	H4.125c-1.119,0-2.162-0.437-2.937-1.229C0.422,15.284,0,14.239,0,13.125c0-1.984,1.405-3.649,3.281-4.069V8.203
	c0-2.3,1.872-4.172,4.172-4.172c0.667,0,1.316,0.16,1.897,0.457c0.378-0.924,0.972-1.755,1.739-2.418
	c1.159-1.002,2.643-1.554,4.177-1.554c3.523,0,6.39,2.867,6.39,6.39V7.53C23.115,8.519,24,10.166,24,11.953z M12.984,17.531v1.031
	c0,0.518-0.42,0.938-0.938,0.938c-0.518,0-0.938-0.42-0.938-0.938v-1.031c0-0.518,0.42-0.937,0.938-0.937
	C12.565,16.594,12.984,17.013,12.984,17.531z"/>
</svg>
